X:112
%%etbk:tnset id:39,pos:3,rep:3x,ant:
%%etbk:pldat 2016-07-21T18:42,2015-01-26T19:17,2015-01-20T17:17,2014-12-31T15:56,2014-12-03T18:13,2014-05-07T15:46,2014-05-05T19:32,2014-05-02T17:39,2014-04-02T17:19,2014-02-26T18:49,2014-02-14T16:36,2014-02-10T18:46,2014-02-09T13:23,2014-02-08T13:54,2013-11-26T16:53,2013-08-28T16:27,2013-05-22T17:02,2013-05-12T19:06,2013-05-05T13:48
T: Michael Cramer's
Z: Piano Box Version by Martin Fleischmann
H: Created 2013-02-19 /  Last Modified 2013-02-19
M: 4/4
L: 1/8
R: reel
K: Dmaj
"D"!3!A3B !3!A2!2!FF | !3!A!2!F!3!A!5!d !3!f2fg | !5!afef !1!d!2!BBB | "A"!4!d!2!B!1!A!3!F !3!FE!1!D!2!F |
"D"!4![A3D]B !4!A2!2!FF | !3!A!2!F!3!A!5!d !3!f2fg | !5!afef !1!d2!2!BB | "A"!1!A!3!d!5!fe "D"!3!d4:|
|:"D"!5!f!3!ded !2!B!1!A!2!A!1!A | !3!d!2!c!1!d!3!f !5!a3f | "G"!4!g2fg "A"!2!e!1!B!2!B!1!B | !4!d!2!B!1!A!3!F !3!FE!1!D!2!F |
"D"!4![A3D]B !4!A2!2!FF | !3!A!2!F!3!A!5!d !3!f2fg | !5!afef !1!d2!2!BB | "A"!1!A!3!d!5!fe "D"!3!d4:|


